addons/simplegrasstextured/sgt_icon.svg

<svg height="16" viewBox="0 0 16 16" width="16" xmlns="http://www.w3.org/2000/svg"><path d="m12 16c0-1 .446169-1.677492.997208-2.004739s1.552788-.302657 1.935486-.612948c.39166-.317558.238883-1.354794-.506722-1.360997-.602093-.005-2.280917.114349-2.994345 1.000498 0 0 .02877-.342307.728246-1.143787.25749-.295051.845071-.831245 1.335226-1.142006.315855-.200253.304568-.7940042.07635-1.1019159-.215366-.2906622-.757754-.5139818-1.267426-.097492-.875141.7151419-1.535631 1.3688649-1.96025 2.2237409 0 0 .555629-1.8148729 1.43465-3.1148791.585017-.8652009 1.447696-1.7613109 1.817344-2.0254611.476676-.3406332.395132-.8215602.257622-1.0775902-.137511-.25603-.649361-.8320229-1.469324-.2618772-.819964.5701457-1.8201 1.6816705-2.348572 2.7445314s-1.1018056 2.5619382-1.2122906 3.1644092c-.110485.60247.5333328-3.1752147.6357058-5.079275.102374-1.9040603-.0477389-3.4964517-.3531978-3.9387761-.2751828-.3984826-.8833696-.4032313-1.1565766-.2908387s-.5957703.4281338-.4622839 1.2053489c.091674.5337666.3731939 2.7779204-.06879 5.3078203 0 0-.2057111-2.091578-1.1059456-3.5329404-.6953339-1.1132976-1.4709299-1.766534-1.9207789-1.9933816-.449849-.2268475-.9125047-.0586449-1.1722357.2318279-.259732.2904727-.2725999.796324.0722066 1.0619276.7473817.5757065 1.8873348 2.3387974 2.0981248 3.1994408.21079.8606435.4931243 2.5858981.4097173 3.5376743 0 0-.7080016-1.2931297-1.6459356-2.2119993-.9386135-.9195354-1.5936048-1.4640717-2.3630513-1.1946814-.4980943.1743873-.7806591 1.1030419-.3368274 1.4021851.5723157.3857416 1.5820789 1.3039366 2.1658692 2.0464946.7549572.960276 1.2957891 1.962209 1.4475241 3.041457 0 0-.6087356-1.160801-1.5415066-1.565491s-1.3957658-.363075-1.8337441-.146313c-.3852071.190644-.4632405 1.066396-.2526335 1.28813.282265.297177.7544938.392878 1.3193052.541587.5303985.139651 1.2418516.900316 1.2418516 1.900316h7z" fill="#46be00"/></svg>

<?xml version="1.0" encoding="UTF-8" standalone="no"?>
<!-- Created with Inkscape (http://www.inkscape.org/) -->

<svg
   width="16"
   height="16"
   viewBox="0 0 16 16"
   version="1.1"
   id="svg5"
   inkscape:version="1.1.2 (0a00cf5339, 2022-02-04)"
   sodipodi:docname="icon.svg"
   xmlns:inkscape="http://www.inkscape.org/namespaces/inkscape"
   xmlns:sodipodi="http://sodipodi.sourceforge.net/DTD/sodipodi-0.dtd"
   xmlns="http://www.w3.org/2000/svg"
   xmlns:svg="http://www.w3.org/2000/svg">
  <sodipodi:namedview
     id="namedview7"
     pagecolor="#505050"
     bordercolor="#ffffff"
     borderopacity="1"
     inkscape:pageshadow="0"
     inkscape:pageopacity="0"
     inkscape:pagecheckerboard="1"
     inkscape:document-units="px"
     showgrid="true"
     inkscape:zoom="45.254834"
     inkscape:cx="6.7838057"
     inkscape:cy="8.6620581"
     inkscape:window-width="1920"
     inkscape:window-height="1007"
     inkscape:window-x="0"
     inkscape:window-y="0"
     inkscape:window-maximized="1"
     inkscape:current-layer="layer1"
     inkscape:snap-grids="true"
     inkscape:snap-to-guides="true"
     inkscape:snap-nodes="true"
     inkscape:snap-intersection-paths="false"
     inkscape:snap-page="false"
     showguides="false">
    <inkscape:grid
       type="xygrid"
       id="grid2648" />
  </sodipodi:namedview>
  <defs
     id="defs2" />
  <g
     inkscape:label="Capa 1"
     inkscape:groupmode="layer"
     id="layer1">
    <path
       style="fill:#46be00;fill-opacity:1;stroke:none;stroke-width:1px;stroke-linecap:butt;stroke-linejoin:miter;stroke-opacity:1"
       d="m 12,16 c 0,-1 0.446169,-1.677492 0.997208,-2.004739 0.551039,-0.327247 1.552788,-0.302657 1.935486,-0.612948 0.39166,-0.317558 0.238883,-1.354794 -0.506722,-1.360997 -0.602093,-0.005 -2.280917,0.114349 -2.994345,1.000498 0,0 0.02877,-0.342307 0.728246,-1.143787 0.25749,-0.295051 0.845071,-0.831245 1.335226,-1.142006 0.315855,-0.200253 0.304568,-0.7940042 0.07635,-1.1019159 -0.215366,-0.2906622 -0.757754,-0.5139818 -1.267426,-0.097492 -0.875141,0.7151419 -1.535631,1.3688649 -1.96025,2.2237409 0,0 0.555629,-1.8148729 1.43465,-3.1148791 C 12.36344,7.780274 13.226119,6.884164 13.595767,6.6200138 14.072443,6.2793806 13.990899,5.7984536 13.853389,5.5424236 13.715878,5.2863936 13.204028,4.7104007 12.384065,5.2805464 11.564101,5.8506921 10.563965,6.9622169 10.035493,8.0250778 9.507021,9.0879387 8.9336874,10.587016 8.8232024,11.189487 8.7127174,11.791957 9.3565352,8.0142723 9.4589082,6.110212 9.5612822,4.2061517 9.4111693,2.6137603 9.1057104,2.1714359 8.8305276,1.7729533 8.2223408,1.7682046 7.9491338,1.8805972 7.6759268,1.9929898 7.3533635,2.308731 7.4868499,3.0859461 c 0.091674,0.5337666 0.3731939,2.7779204 -0.06879,5.3078203 0,0 -0.2057111,-2.091578 -1.1059456,-3.5329404 C 5.6167804,3.7475284 4.8411844,3.094292 4.3913354,2.8674444 3.9414864,2.6405969 3.4788307,2.8087995 3.2190997,3.0992723 2.9593677,3.389745 2.9464998,3.8955963 3.2913063,4.1611999 4.038688,4.7369064 5.1786411,6.4999973 5.3894311,7.3606407 c 0.21079,0.8606435 0.4931243,2.5858981 0.4097173,3.5376743 0,0 -0.7080016,-1.2931297 -1.6459356,-2.2119993 C 3.2145993,7.7667803 2.559608,7.222244 1.7901615,7.4916343 1.2920672,7.6660216 1.0095024,8.5946762 1.4533341,8.8938194 2.0256498,9.279561 3.035413,10.197756 3.6192033,10.940314 c 0.7549572,0.960276 1.2957891,1.962209 1.4475241,3.041457 0,0 -0.6087356,-1.160801 -1.5415066,-1.565491 -0.932771,-0.40469 -1.3957658,-0.363075 -1.8337441,-0.146313 -0.3852071,0.190644 -0.4632405,1.066396 -0.2526335,1.28813 0.282265,0.297177 0.7544938,0.392878 1.3193052,0.541587 C 3.2885469,14.239335 4,15 4,16 h 7 z"
       id="path869"
       sodipodi:nodetypes="csssccssscsssssssssscssssscsssscssscccc" />
  </g>
</svg>
